icons/1_Primary/Shopify.svg

<svg width="1024" height="1024" fill="none" xmlns="http://www.w3.org/2000/svg"><g clip-path="url(#a)"><path d="M512 1024c282.77 0 512-229.23 512-512S794.77 0 512 0 0 229.23 0 512s229.23 512 512 512Z" fill="#98DC9A"/><path d="M596.68 279.63s-6 1.71-15.78 4.69a124.83 124.83 0 0 0-7.68-18.77c-11.09-21.33-27.73-32.85-47.35-32.85a16.02 16.02 0 0 0-4.27.43c-.43-.85-1.28-1.28-1.71-2.13-8.53-9.38-19.62-13.65-32.85-13.22-25.59.85-51.19 19.2-71.67 52-14.5 23-25.59 52-28.58 74.65-29.43 9-49.91 15.36-50.34 15.78-14.93 4.69-15.36 5.12-17.06 19.2-1.28 10.66-40.53 311-40.53 311l322.5 55.88V279.2a44.444 44.444 0 0 0-4.68.43Zm-74.65 23c-17.06 5.12-35.83 11.09-54.18 16.64 5.12-20 15.36-40.1 27.3-53.32 4.69-4.69 11.09-10.24 18.34-13.65 7.25 15.38 8.96 36.29 8.51 50.36l.03-.03Zm-35-67.4a29.312 29.312 0 0 1 15.36 3.84c-6.83 3.41-13.65 9-20 15.36-16.21 17.49-28.58 44.79-33.7 70.81-15.36 4.69-30.71 9.38-44.79 13.65 9.35-40.89 43.9-102.77 83.1-103.63l.03-.03Zm-49.47 234.65c1.71 27.3 73.8 33.27 78.06 97.69 3 50.76-26.87 85.32-70 87.88-52 3.41-80.62-27.3-80.62-27.3l11.09-46.92s28.58 21.76 51.62 20c14.93-.85 20.48-13.22 20-21.76-2.13-35.83-61-33.7-64.84-92.57-3.41-49.48 29-99.39 100.67-104.09 27.73-1.71 41.8 5.12 41.8 5.12l-16.21 61.43s-18.34-8.53-40.1-6.83c-31.47 2.18-31.89 22.23-31.47 27.35Zm101.53-172.34c0-12.8-1.71-31.14-7.68-46.5 19.62 3.84 29 25.59 33.27 38.82-7.673 2.14-16.203 4.7-25.59 7.68Zm72.09-13.22c8.53 8.53 31.57 30.71 31.57 30.71s37.54.85 39.67.85a5.003 5.003 0 0 1 4.69 4.27c.43 2.56 58 392 58 392l-133.93 33.3V284.32Z" fill="#fff"/></g><defs><clipPath id="a"><path fill="#fff" d="M0 0h1024v1024H0z"/></clipPath></defs></svg>

<svg width="1024" height="1024" viewBox="0 0 1024 1024" fill="none" xmlns="http://www.w3.org/2000/svg">
<g clip-path="url(#clip0_2_3459)">
<path d="M512 1024C794.77 1024 1024 794.77 1024 512C1024 229.23 794.77 0 512 0C229.23 0 0 229.23 0 512C0 794.77 229.23 1024 512 1024Z" fill="#98DC9A"/>
<path d="M596.68 279.63C596.68 279.63 590.68 281.34 580.9 284.32C578.853 277.865 576.285 271.588 573.22 265.55C562.13 244.22 545.49 232.7 525.87 232.7C524.434 232.651 522.997 232.796 521.6 233.13C521.17 232.28 520.32 231.85 519.89 231C511.36 221.62 500.27 217.35 487.04 217.78C461.45 218.63 435.85 236.98 415.37 269.78C400.87 292.78 389.78 321.78 386.79 344.43C357.36 353.43 336.88 359.79 336.45 360.21C321.52 364.9 321.09 365.33 319.39 379.41C318.11 390.07 278.86 690.41 278.86 690.41L601.36 746.29V279.2C599.793 279.261 598.231 279.404 596.68 279.63ZM522.03 302.63C504.97 307.75 486.2 313.72 467.85 319.27C472.97 299.27 483.21 279.17 495.15 265.95C499.84 261.26 506.24 255.71 513.49 252.3C520.74 267.68 522.45 288.59 522 302.66L522.03 302.63ZM487.03 235.23C492.405 235.077 497.719 236.405 502.39 239.07C495.56 242.48 488.74 248.07 482.39 254.43C466.18 271.92 453.81 299.22 448.69 325.24C433.33 329.93 417.98 334.62 403.9 338.89C413.25 298 447.8 236.12 487 235.26L487.03 235.23ZM437.56 469.88C439.27 497.18 511.36 503.15 515.62 567.57C518.62 618.33 488.75 652.89 445.62 655.45C393.62 658.86 365 628.15 365 628.15L376.09 581.23C376.09 581.23 404.67 602.99 427.71 601.23C442.64 600.38 448.19 588.01 447.71 579.47C445.58 543.64 386.71 545.77 382.87 486.9C379.46 437.42 411.87 387.51 483.54 382.81C511.27 381.1 525.34 387.93 525.34 387.93L509.13 449.36C509.13 449.36 490.79 440.83 469.03 442.53C437.56 444.71 437.14 464.76 437.56 469.88ZM539.09 297.54C539.09 284.74 537.38 266.4 531.41 251.04C551.03 254.88 560.41 276.63 564.68 289.86C557.007 292 548.477 294.56 539.09 297.54ZM611.18 284.32C619.71 292.85 642.75 315.03 642.75 315.03C642.75 315.03 680.29 315.88 682.42 315.88C683.575 315.939 684.673 316.398 685.529 317.176C686.384 317.955 686.943 319.006 687.11 320.15C687.54 322.71 745.11 712.15 745.11 712.15L611.18 745.45V284.32Z" fill="white"/>
</g>
<defs>
<clipPath id="clip0_2_3459">
<rect width="1024" height="1024" fill="white"/>
</clipPath>
</defs>
</svg>
